frontend/public/svg/interface/user.svg

<svg width="154" height="139" viewBox="0 0 154 139" fill="none" xmlns="http://www.w3.org/2000/svg">
<g clip-path="url(#clip0)">
<path d="M95.5437 138.156C81.351 138.156 67.1577 138.087 52.9659 138.178C41.5557 138.251 30.1507 138.581 18.7418 138.66C15.532 138.66 12.3267 138.419 9.15272 137.943C2.31571 136.962 -0.404563 132.922 1.87229 126.404C3.42924 122.038 5.46389 117.857 7.93922 113.936C18.4269 97.1419 33.6865 86.2365 51.9746 79.2109C61.9028 75.3176 72.455 73.2462 83.1222 73.0962C99.0705 72.9578 113.752 76.996 126.29 87.4914C134.849 94.5585 141.844 103.321 146.832 113.223C148.22 115.99 149.785 118.693 150.897 121.569C151.965 124.224 152.711 126.997 153.121 129.828C153.669 134.07 151.3 136.882 147.055 137.416C144.094 137.817 141.111 138.04 138.121 138.084C123.929 138.149 109.736 138.115 95.5437 138.115V138.156ZM142.17 127.803C142.226 127.352 142.221 126.896 142.157 126.446C137.636 114.734 131.39 104.149 121.739 95.8573C114.294 89.4607 105.943 84.8575 96.0222 83.6091C84.5906 82.1713 73.2634 82.4726 62.0901 85.6133C40.9515 91.5548 24.0858 103.251 12.5362 122.106C11.2221 124.251 10.179 126.56 8.97055 128.862C9.33781 129.063 9.72102 129.233 10.1162 129.371C14.0708 130.238 18.0145 129.728 22.0028 129.506C30.2914 129.042 38.6028 128.843 46.9056 128.8C74.0693 128.661 101.233 128.671 128.397 128.542C132.919 128.518 137.433 128.068 142.172 127.803H142.17Z" fill="black"/>
<path d="M80.054 0.453541C90.989 0.187825 100.125 5.39469 107.061 14.8577C108.696 17.0888 110.669 19.1602 111.863 21.6072C114.532 27.0767 116.742 32.6955 115.324 39.0792C113.992 45.0736 112.256 50.8459 108.387 55.7593C101.506 64.4873 92.7342 69.8834 81.5231 71.2249C71.4315 72.4332 61.8361 70.9417 52.8772 66.2047C43.6499 61.3263 38.3999 53.4318 36.4939 43.2887C33.6251 28.0194 41.6324 14.325 54.2666 7.04399C61.912 2.63671 70.168 0.415397 80.054 0.453541ZM104.014 31.4757C104.515 27.6263 102.971 24.5522 100.578 21.7508C99.6445 20.6576 98.8004 19.4847 97.8286 18.4277C94.3109 14.6016 90.2998 11.5747 84.9643 10.7737C77.4841 9.53875 69.8049 10.543 62.8974 13.6597C54.2633 17.6209 47.8224 23.6599 46.3384 33.7015C44.6075 45.4157 50.667 55.8989 61.4438 59.3596C67.9015 61.3733 74.7204 61.965 81.4297 61.0937C90.6013 60.0463 101.397 50.6408 102.856 40.9871C103.332 37.8295 103.633 34.6449 104.014 31.4725V31.4757Z" fill="black"/>
</g>
<defs>
<clipPath id="clip0">
<rect width="153" height="139" fill="white" transform="translate(0.777344)"/>
</clipPath>
</defs>
</svg>

<svg xmlns="http://www.w3.org/2000/svg" width="154" height="139" fill="none" viewBox="0 0 154 139"><g fill="#000" clip-path="url(#a)"><path d="M95.544 138.156c-14.193 0-28.386-.069-42.578.022-11.41.073-22.815.403-34.224.482-3.21 0-6.415-.241-9.59-.717-6.836-.981-9.557-5.021-7.28-11.539a63 63 0 0 1 6.067-12.468c10.488-16.794 25.748-27.7 44.036-34.725a88.7 88.7 0 0 1 31.147-6.115c15.948-.138 30.63 3.9 43.168 14.395a80.1 80.1 0 0 1 20.542 25.732c1.388 2.767 2.953 5.47 4.065 8.346a36 36 0 0 1 2.224 8.259c.548 4.242-1.821 7.054-6.066 7.588a75 75 0 0 1-8.934.668c-14.192.065-28.385.031-42.577.031zm46.626-10.353a5 5 0 0 0-.013-1.357c-4.521-11.712-10.767-22.297-20.418-30.589-7.445-6.396-15.796-11-25.717-12.248-11.431-1.438-22.759-1.136-33.932 2.004-21.138 5.942-38.004 17.638-49.554 36.493-1.314 2.145-2.357 4.454-3.565 6.756q.552.302 1.145.509c3.955.867 7.899.357 11.887.135 8.288-.464 16.6-.663 24.903-.706 27.163-.139 54.327-.129 81.491-.258 4.522-.024 9.036-.474 13.775-.739zM80.054.454c10.935-.266 20.071 4.94 27.007 14.404 1.635 2.23 3.608 4.302 4.802 6.75 2.669 5.469 4.879 11.088 3.461 17.471-1.332 5.995-3.068 11.767-6.937 16.68-6.881 8.728-15.653 14.124-26.864 15.466-10.091 1.208-19.687-.283-28.646-5.02C43.65 61.326 38.4 53.432 36.494 43.289c-2.869-15.27 5.138-28.964 17.773-36.245C61.912 2.637 70.168.415 80.054.454m23.96 31.022c.501-3.85-1.043-6.924-3.436-9.725-.934-1.093-1.778-2.266-2.75-3.323-3.517-3.826-7.528-6.853-12.864-7.654a38.44 38.44 0 0 0-22.067 2.886c-8.634 3.96-15.075 10-16.559 20.042-1.73 11.714 4.329 22.197 15.106 25.658a46.9 46.9 0 0 0 19.986 1.734c9.171-1.048 19.967-10.453 21.426-20.107.476-3.157.777-6.342 1.158-9.515z"/></g><defs><clipPath id="a"><path fill="#fff" d="M.777 0h153v139h-153z"/></clipPath></defs></svg>
